X: 7166
T: Churnal Jiu As Churnal Jea
R: jig
M: 6/8
K: Gmajor
B2d G2A|B2c d2d|d2e d2B|A3 d2d|
G2G G2A|B2c d2d|d2e dcB|A3 G2d|
e2c c2e|d2B G2B|A2G F2A|D3 D2D|
G2A B2c|d2B G2F|E2G cB2|A3 G3||

